X: 1601
T: Last of the Twins, The
R:hornpipe
N:"Collected by F. O'Neill"
B:O'Neill's 1601
Z:Transcribed by Michael Hogan
M:C|
L:1/8
K:A
(3efg | a>ec>e f>ec>B | A>ce>a f>ec>A | G>AB>c d>ef>e | d>cB>A B2 (3efg|
a>ec>e f>ec>B | A>ce>a f>ec>A | G>AB>c d>ef>g | a2 A2 A2 :|
|: (3efg | a>ga>b a>gf>e | f>ef>g f>ec>A | G>AB>c d>ef>e | d>cB>A B2 (3efg |
a>ga>b a>gf>e | f>ef>g f>ec>A | G>AB>c d>ef>g | a2 a>g a2 :||


